packages/assets/static/images/icons/star.svg

<svg width="24" height="24" viewBox="0 0 24 24" xmlns="http://www.w3.org/2000/svg">
<path d="M22.4231 9.49348C22.3293 9.20523 22.1523 8.95117 21.9144 8.76332C21.6765 8.57546 21.3883 8.46222 21.0862 8.43786L15.5549 7.99161L13.4193 2.82692C13.3038 2.5455 13.1072 2.30478 12.8546 2.13536C12.6019 1.96595 12.3046 1.87549 12.0004 1.87549C11.6962 1.87549 11.3989 1.96595 11.1462 2.13536C10.8936 2.30478 10.697 2.5455 10.5815 2.82692L8.44775 7.99067L2.91369 8.43786C2.61104 8.46345 2.32268 8.57779 2.08473 8.76655C1.84678 8.95531 1.66982 9.21009 1.57603 9.49897C1.48224 9.78786 1.47578 10.098 1.55747 10.3905C1.63916 10.6831 1.80536 10.945 2.03525 11.1435L6.254 14.7838L4.96869 20.2269C4.89681 20.5226 4.91441 20.833 5.01926 21.1187C5.12411 21.4044 5.31148 21.6525 5.55759 21.8315C5.8037 22.0105 6.09745 22.1124 6.40154 22.1241C6.70564 22.1359 7.00637 22.057 7.26557 21.8975L11.9999 18.9838L16.7371 21.8975C16.9964 22.0551 17.2965 22.1325 17.5997 22.1198C17.9028 22.1072 18.1955 22.0051 18.4408 21.8265C18.686 21.6479 18.873 21.4007 18.978 21.1161C19.0831 20.8314 19.1016 20.5221 19.0312 20.2269L17.7412 14.7829L21.9599 11.1425C22.1917 10.9444 22.3594 10.6819 22.4419 10.3883C22.5243 10.0948 22.5178 9.78333 22.4231 9.49348ZM20.9849 10.0063L16.4193 13.9438C16.3152 14.0335 16.2377 14.1502 16.1954 14.281C16.1531 14.4117 16.1475 14.5516 16.1793 14.6854L17.5743 20.5729C17.5779 20.581 17.5783 20.5902 17.5753 20.5985C17.5724 20.6069 17.5663 20.6138 17.5584 20.6179C17.5415 20.631 17.5368 20.6282 17.5228 20.6179L12.3928 17.4632C12.2746 17.3905 12.1386 17.3521 11.9999 17.3521C11.8612 17.3521 11.7253 17.3905 11.6071 17.4632L6.47713 20.6197C6.46307 20.6282 6.45932 20.631 6.4415 20.6197C6.43359 20.6157 6.42753 20.6088 6.42456 20.6004C6.4216 20.592 6.42196 20.5828 6.42557 20.5747L7.82057 14.6872C7.85236 14.5535 7.84679 14.4136 7.80446 14.2828C7.76214 14.152 7.68468 14.0354 7.58057 13.9457L3.01494 10.0082C3.00369 9.9988 2.99338 9.99036 3.00275 9.9613C3.01213 9.93223 3.01963 9.93598 3.03369 9.93411L9.02619 9.45036C9.16364 9.43857 9.29517 9.3891 9.40632 9.30739C9.51747 9.22568 9.60393 9.1149 9.65619 8.98723L11.9643 3.3988C11.9718 3.38286 11.9746 3.37536 11.9971 3.37536C12.0196 3.37536 12.0224 3.38286 12.0299 3.3988L14.3437 8.98723C14.3964 9.11495 14.4835 9.22561 14.5951 9.307C14.7068 9.3884 14.8388 9.43736 14.9765 9.44848L20.969 9.93223C20.9831 9.93223 20.9915 9.93223 20.9999 9.95942C21.0084 9.98661 20.9999 9.99692 20.9849 10.0063Z"/>
</svg>

<svg viewBox="0 0 24 24" xmlns="http://www.w3.org/2000/svg" aria-hidden="true" fill="currentColor"><path d="M22.423 9.493a1.54 1.54 0 0 0-1.337-1.055l-5.531-.446-2.136-5.165a1.534 1.534 0 0 0-2.838 0L8.449 7.99l-5.534.447a1.543 1.543 0 0 0-.879 2.705l4.219 3.64-1.285 5.444a1.536 1.536 0 0 0 2.297 1.67L12 18.985l4.737 2.913a1.537 1.537 0 0 0 2.294-1.67l-1.29-5.444 4.219-3.64a1.54 1.54 0 0 0 .463-1.65m-1.438.513-4.566 3.938a.75.75 0 0 0-.24.741l1.395 5.888a.035.035 0 0 1-.016.045c-.017.013-.021.01-.035 0l-5.13-3.155a.75.75 0 0 0-.786 0l-5.13 3.157c-.014.008-.018.011-.036 0a.034.034 0 0 1-.015-.045l1.395-5.888a.75.75 0 0 0-.24-.741l-4.566-3.938c-.011-.01-.022-.018-.012-.047s.017-.025.03-.027l5.993-.484a.75.75 0 0 0 .63-.463L11.964 3.4c.008-.016.01-.024.033-.024s.025.008.033.024l2.314 5.588a.75.75 0 0 0 .633.461l5.992.484c.014 0 .022 0 .03.027.01.028 0 .038-.014.047"/></svg>
